src/assets/icons/home/mobile-transfer.svg

<svg width="24" height="24" fill="none" xmlns="http://www.w3.org/2000/svg">
  <path
    d="M18 0H6c-.79565 0-1.55871.31607-2.12132.87868C3.31607 1.44129 3 2.20435 3 3v18c0 .7956.31607 1.5587.87868 2.1213C4.44129 23.6839 5.20435 24 6 24h12c.7956 0 1.5587-.3161 2.1213-.8787C20.6839 22.5587 21 21.7956 21 21V3c0-.79565-.3161-1.55871-.8787-2.12132C19.5587.31607 18.7956 0 18 0Zm1 20c0 .2652-.1054.5196-.2929.7071S18.2652 21 18 21H6c-.26522 0-.51957-.1054-.70711-.2929C5.10536 20.5196 5 20.2652 5 20V4c0-.26522.10536-.51957.29289-.70711C5.48043 3.10536 5.73478 3 6 3h12c.2652 0 .5196.10536.7071.29289C18.8946 3.48043 19 3.73478 19 4v16Z"
    fill="#FFAF2A" />
  <path
    d="M15.5459 12.5819c-.6614-.616-1.4509-1.0781-2.312-1.353l-.668-.255V7.77394c.9418.07785 1.8664.29697 2.743.65l.641-1.608c-1.0759-.43973-2.2222-.68226-3.384-.716v-1.457h-1.166v1.475c-.9296.05476-1.82189.38513-2.56301.949-.30142.23755-.54357.54184-.70739.8889-.16381.34706-.2448.72741-.23661 1.1111-.02113.69347.21503 1.37026.663 1.89996.58284.604 1.30342 1.0576 2.10001 1.322l.739.273v3.287c-.6116-.0171-1.2192-.104-1.81101-.259-.60909-.1441-1.20135-.3519-1.767-.62v1.857c1.13539.4618 2.35251.689 3.57801.668v1.852h1.168v-1.907c.9807-.0531 1.9206-.4095 2.69-1.02.3022-.2585.5431-.5811.7052-.9444.162-.3632.2412-.7579.2318-1.1556.0159-.6404-.2146-1.2625-.644-1.738Zm-4.153-2.042c-.418-.1389-.8025-.3633-1.129-.65896-.2104-.22616-.32288-.52628-.31301-.835-.00232-.15362.02959-.30584.09341-.44559.0638-.13976.158-.26356.2756-.36241.3092-.24316.6815-.39272 1.073-.431v2.73296Zm1.168 5.235v-2.8c.4327.1355.8366.3502 1.191.633.1165.106.2086.236.2701.381.0615.145.0908.3016.0859.459.0013.726-.5143 1.1684-1.547 1.327Z"
    fill="#FFAF2A" />
</svg>

<svg width="24" height="24" viewBox="0 0 24 24" fill="none" xmlns="http://www.w3.org/2000/svg">
<path d="M18 0H6C5.20435 0 4.44129 0.31607 3.87868 0.87868C3.31607 1.44129 3 2.20435 3 3V21C3 21.7956 3.31607 22.5587 3.87868 23.1213C4.44129 23.6839 5.20435 24 6 24H18C18.7956 24 19.5587 23.6839 20.1213 23.1213C20.6839 22.5587 21 21.7956 21 21V3C21 2.20435 20.6839 1.44129 20.1213 0.87868C19.5587 0.31607 18.7956 0 18 0V0ZM19 20C19 20.2652 18.8946 20.5196 18.7071 20.7071C18.5196 20.8946 18.2652 21 18 21H6C5.73478 21 5.48043 20.8946 5.29289 20.7071C5.10536 20.5196 5 20.2652 5 20V4C5 3.73478 5.10536 3.48043 5.29289 3.29289C5.48043 3.10536 5.73478 3 6 3H18C18.2652 3 18.5196 3.10536 18.7071 3.29289C18.8946 3.48043 19 3.73478 19 4V20Z" fill="#FFAF2A"/>
<path d="M15.5459 12.5819C14.8845 11.9659 14.095 11.5038 13.2339 11.2289L12.5659 10.9739V7.77394C13.5077 7.85179 14.4323 8.07091 15.3089 8.42394L15.9499 6.81594C14.874 6.37621 13.7277 6.13368 12.5659 6.09994V4.64294H11.3999V6.11794C10.4703 6.1727 9.57801 6.50307 8.83689 7.06694C8.53547 7.30449 8.29332 7.60878 8.1295 7.95584C7.96569 8.3029 7.8847 8.68325 7.89289 9.06694C7.87176 9.76041 8.10792 10.4372 8.55589 10.9669C9.13873 11.5709 9.85931 12.0245 10.6559 12.2889L11.3949 12.5619V15.8489C10.7833 15.8318 10.1757 15.7449 9.58389 15.5899C8.9748 15.4458 8.38254 15.238 7.81689 14.9699V16.8269C8.95228 17.2887 10.1694 17.5159 11.3949 17.4949V19.3469H12.5629V17.4399C13.5436 17.3868 14.4835 17.0304 15.2529 16.4199C15.5551 16.1614 15.796 15.8388 15.9581 15.4755C16.1201 15.1123 16.1993 14.7176 16.1899 14.3199C16.2058 13.6795 15.9753 13.0574 15.5459 12.5819ZM11.3929 10.5399C10.9749 10.401 10.5904 10.1766 10.2639 9.88094C10.0535 9.65478 9.94102 9.35466 9.95089 9.04594C9.94857 8.89232 9.98048 8.7401 10.0443 8.60035C10.1081 8.46059 10.2023 8.33679 10.3199 8.23794C10.6291 7.99478 11.0014 7.84522 11.3929 7.80694V10.5399ZM12.5609 15.7749V12.9749C12.9936 13.1104 13.3975 13.3251 13.7519 13.6079C13.8684 13.7139 13.9605 13.8439 14.022 13.9889C14.0835 14.1339 14.1128 14.2905 14.1079 14.4479C14.1092 15.1739 13.5936 15.6163 12.5609 15.7749Z" fill="#FFAF2A"/>
</svg>
